X:1
T:What Did You Learn In School Today?
M:4/4
L:1/8
K:C
 CC CE G G3/2 G/2 G| E E/2 /2E/2 D E [/2/2] F4| C C/2 /2C/2 [/2/2] EG G3/2 G/2 G2|\
 EE EF D C2 G| A3/2 A/2A/2 G/2 F G/2G/2 G/2G/2 GG| A3/2 A/2 AF GG GG|\
 A3/2 A/2 AA GG GG| A A/2A/2 AF G3/2 G/2 G G,| C C/2C/2 EG G3/2 G/2 G2|\
 E E/2E/2 FD C4|
